svg/briefcase.svg

<svg width="32" height="32" viewBox="0 0 32 32" fill="none" xmlns="http://www.w3.org/2000/svg">
<path fill-rule="evenodd" clip-rule="evenodd" d="M14 11.0236C14.623 11.0074 15.2887 11 16 11C26.0833 11 27 12.5 27 19C27 25.5 26.0833 27 16 27C15.2887 27 14.623 26.9926 14 26.9764C5.7919 26.7635 5 25.0414 5 19C5 12.9586 5.7919 11.2365 14 11.0236ZM7 19C6.99951 20.5814 7.03903 21.6678 7.24951 22.5423C7.41556 23.341 7.50861 23.5612 7.96548 23.8737C8.3237 24.1592 8.99329 24.4717 10.3453 24.6895C11.7291 24.9155 13.5027 24.9995 15.9492 25H16C18.4727 25.0005 20.2614 24.9171 21.6547 24.6895C23.0067 24.4717 23.6763 24.1592 24.0345 23.8737C24.4914 23.5612 24.5844 23.341 24.7505 22.5423C24.961 21.6678 25.0005 20.5814 25 19C25.0005 17.4186 24.961 16.3322 24.7505 15.4577C24.5844 14.659 24.4914 14.4388 24.0345 14.1263C23.6763 13.8408 23.0067 13.5283 21.6547 13.3105C20.2614 13.0829 18.4727 12.9995 16 13H15.9492C13.5027 13.0005 11.7291 13.0845 10.3453 13.3105C8.99329 13.5283 8.3237 13.8408 7.96548 14.1263C7.50861 14.4388 7.41556 14.659 7.24951 15.4577C7.03903 16.3322 6.99951 17.4186 7 19Z" fill="black"/>
<path fill-rule="evenodd" clip-rule="evenodd" d="M16 6C13.2386 6 11 8.2386 11 11V25.5C11 26.0523 11.4477 26.5 12 26.5C12.5523 26.5 13 26.0523 13 25.5V11C13 9.3431 14.3432 8 16 8C17.6569 8 19 9.3431 19 11V25.5C19 26.0523 19.4477 26.5 20 26.5C20.5523 26.5 21 26.0523 21 25.5V11C21 8.2386 18.7614 6 16 6Z" fill="black"/>
</svg>

<svg width="32" height="32" fill="none" xmlns="http://www.w3.org/2000/svg"><path fill-rule="evenodd" clip-rule="evenodd" d="M14 11.024A77.266 77.266 0 0 1 16 11c10.083 0 11 1.5 11 8s-.917 8-11 8c-.711 0-1.377-.007-2-.024-8.208-.212-9-1.935-9-7.976s.792-7.764 9-7.976zM7 19c0 1.581.039 2.668.25 3.542.166.799.259 1.02.715 1.332.359.285 1.028.598 2.38.816 1.384.226 3.158.31 5.604.31H16c2.473 0 4.261-.083 5.655-.31 1.352-.218 2.021-.53 2.38-.816.456-.313.55-.533.715-1.332.211-.874.25-1.96.25-3.542 0-1.581-.039-2.668-.25-3.542-.166-.799-.259-1.02-.715-1.332-.359-.285-1.028-.598-2.38-.816C20.26 13.083 18.473 13 16 13h-.05c-2.447 0-4.22.085-5.605.31-1.352.218-2.021.53-2.38.816-.456.313-.55.533-.715 1.332C7.039 16.332 7 17.418 7 19z" fill="#000"/><path d="M16 6a5 5 0 0 0-5 5v14.5a1 1 0 1 0 2 0V11a3 3 0 0 1 6 0v14.5a1 1 0 1 0 2 0V11a5 5 0 0 0-5-5z" fill="#000"/></svg>
